X: 40683
T: Tori's
R: jig
M: 6/8
K: Gdorian
|:G3 ~d3|dec d3|def dcG|A3 A3|G3 ~d3|
dec d3|gfd cAG|F3 G3:|:G3 ~g3|gaf g3|
gab gfd|c3 d3|G3 ~g3|gaf g3|gfd cAG|F3 G3:|

